src/svg/save.svg

<svg xmlns="http://www.w3.org/2000/svg" width="1000" height="1000" viewBox="0 0 1000 1000"><path fill-rule="evenodd" clip-rule="evenodd" fill="#020202" d="M841.959 893.062h-683.8219999999999c-29.604-7.711-51.658-35.128-51.658-67.007v-650.984c0-37.64 30.476-68.129 68.115-68.129h561.921l157.029 209.618v509.494c0 31.88-21.981 59.297-51.585 67.008zm-523.823-89.993l364.136 1.093v-211.745c0-35.453-28.747-64.111-64.142-64.111h-235.868c-35.453 0-64.126 28.658-64.126 64.111v210.652zm484.056-420.181l-126.095-185.924h-417.819c-33.341 0-60.389 26.944-60.389 60.389v482.047c0 33.356 11.61 63.433 44.966 63.433l15.349.059v-252.842c0-44.582 36.074-80.656 80.656-80.656h321.341c44.523 0 80.598 36.074 80.598 80.656v254.349h1.093c33.355 0 60.301-31.642 60.301-64.998v-356.513h-.001zm-393.045 56.577h-121.014c-16.767 0-30.238-13.561-30.238-30.313v-151.267c0-16.663 13.472-30.224 30.238-30.224h121.015c16.678 0 30.224 13.561 30.224 30.224v151.268c-.001 16.751-13.547 30.312-30.225 30.312zm-30.239-151.268h-60.552v90.702h60.552v-90.702z"/></svg>

<?xml version="1.0" encoding="utf-8"?>
<!-- Generator: Adobe Illustrator 16.0.0, SVG Export Plug-In . SVG Version: 6.00 Build 0)  -->
<!DOCTYPE svg PUBLIC "-//W3C//DTD SVG 1.1//EN" "http://www.w3.org/Graphics/SVG/1.1/DTD/svg11.dtd">
<svg version="1.1" id="Layer_1" xmlns="http://www.w3.org/2000/svg" xmlns:xlink="http://www.w3.org/1999/xlink" x="0px" y="0px"
	 width="1000px" height="1000px" viewBox="0 0 1000 1000" enable-background="new 0 0 1000 1000" xml:space="preserve">
<path fill-rule="evenodd" clip-rule="evenodd" fill="#020202" d="M841.959,893.062h-101.16h-58.734H318.283h-60.079H158.137
	c-29.604-7.711-51.658-35.128-51.658-67.007V175.071c0-37.64,30.476-68.129,68.115-68.129h561.921l157.029,209.618v509.494
	C893.544,857.934,871.563,885.351,841.959,893.062L841.959,893.062z M318.136,803.069l364.136,1.093V592.417
	c0-35.453-28.747-64.111-64.142-64.111H382.262c-35.453,0-64.126,28.658-64.126,64.111V803.069L318.136,803.069z M802.192,382.888
	L676.097,196.964H258.278c-33.341,0-60.389,26.944-60.389,60.389V739.4c0,33.356,11.61,63.433,44.966,63.433l15.349,0.059V550.05
	c0-44.582,36.074-80.656,80.656-80.656h321.341c44.523,0,80.598,36.074,80.598,80.656v254.349h1.093
	c33.355,0,60.301-31.642,60.301-64.998V382.888L802.192,382.888z M409.147,439.465H288.133c-16.767,0-30.238-13.561-30.238-30.313
	V257.885c0-16.663,13.472-30.224,30.238-30.224h121.015c16.678,0,30.224,13.561,30.224,30.224v151.268
	C439.371,425.904,425.825,439.465,409.147,439.465L409.147,439.465z M378.908,288.197h-60.552v90.702h60.552V288.197
	L378.908,288.197z"/>
</svg>
